X:140
T:Smash the Windows. JC.140
R:Jig
S:John Clare,Poet,Helpstone (1793-1864)
O:England
A:Northamptonshire
Z:vmp.P. Headford
M:6/8
L:1/8
Q:3/8=120
K:D
DED F2A|\
d2f ecA|G2B F2A|E2F GFE|!
DED d3d3:|!
|:a2ff2d|A2a agf|g2ee2c|A2g gfe|!
f2dg2e|a2f bag|fed edc|d3d3:|

